X:1
T:Title
%%score ( 1 2 ) { 3 | 4 }
L:1/8
Q:1/4=95
M:6/8
K:G
V:1 treble nm="Grand Piano, Soprano"
V:2 treble 
V:3 bass nm="Choir Pad, Bass"
V:4 bass 
V:1
 D [DG]2 [GB] [Gd]2 | [DG]BA [DF] [DG]2 | E [CE]2 [CE] [EG]2 | [^DA] [=DB]2- [DB]2- [DB]/ z/ | %4
w: By~Grant~S.~Pollock,~arr.~Henry~L.~Gilmour * * *||||
 [Gd] [Fd]2 [Fc] [FA]2 | [Ac] [GB]2 [DG] D2 | D [CE]2 [CB] [CA]2 | [DG] [DG]2- [DG]3- | %8
w: ||||
 [DG][Gd][Gd] [Gd][GB][DA] | [DG] [Ge]2- [Ge]3- | [Ge][Gd][Ge] [Gd][GB][DA] | [^CG] [DA]2- [DA]3- | %12
w: ||||
 [DA] [Gd]2 [Gd][GB][DA] | [DG] [Ec]2 [Ge] [Gd]2- | [Gd][DG][DA] [GB][Ac]<[GB] | %15
w: |||
 [DA] [DG]2- [DG]3- | [DG]3 z3 |] %17
w: ||
V:2
 x6 | z D2 z3 | x6 | x6 | x6 | x6 | x6 | x6 | x6 | x6 | x6 | x6 | x6 | x6 | x6 | x6 | x6 |] %17
V:3
 B, B,2 D B,2 | B,G,F, C B,2 | G, G,2 G, C2 | G, G,2- G,2- G,/ z/ | B, A,2 A,[K:treble] D2 | %5
 D D2 B, B,2 | G, G,2 E, F,2 | C B,2- B,3- | B,B,B, B,DC | B, B,2- B,[K:treble] C2- | %10
 CB,C B,D[K:bass]A, | A, F,2- F, C2- | C B,2 B,[K:treble]DC | B, G,2 C[K:bass] B,2- | %14
 B,B,C D[K:treble]E<D | C B,2- B,3- | B,3 z3 |] %17
V:4
 G, G,2 G, G,2 | G, D,2 D, G,2 | B,, C,2 C, C,2 | .C,3 z3 | G, D,2 D, D,2 | D, G,2 G, G,2 | %6
 B,, C,2 C, D,2 | G,, G,,2- G,,3- | G,,G,G, G,G,G, | G, G,2- G, C,2- | C,G,G, G,G,F, | %11
 E, D,2- D,3- | D, G,2 .G,2 G, | G, C,2 C, G,2- | G,D,D, D,D,<D, | D, G,,2- G,,3- | G,,3 z3 |] %17

